src/assets/logos/vitejs.svg

<svg width="50" height="50" viewBox="0 0 50 50" fill="none" xmlns="http://www.w3.org/2000/svg">
<path d="M49.8346 7.40054L26.347 49.3474C25.8621 50.2135 24.6162 50.2186 24.124 49.3568L0.170836 7.40444C-0.365493 6.46539 0.438609 5.32776 1.50424 5.51814L25.017 9.7154C25.167 9.74217 25.3206 9.74191 25.4705 9.71462L48.4914 5.52399C49.5535 5.33068 50.3613 6.45954 49.8346 7.40054Z" fill="url(#paint0_linear_29_1354)"/>
<path d="M36.2172 0.0123104L18.8359 3.4139C18.6971 3.44107 18.5712 3.51357 18.478 3.62C18.3849 3.72642 18.3298 3.86074 18.3215 4.00183L17.2523 22.037C17.2465 22.1359 17.2638 22.2348 17.3028 22.3259C17.3419 22.417 17.4017 22.4977 17.4775 22.5617C17.5533 22.6256 17.6429 22.6711 17.7394 22.6944C17.8358 22.7177 17.9363 22.7182 18.033 22.696L22.8723 21.5806C23.325 21.4762 23.7342 21.8745 23.641 22.3292L22.2033 29.3608C22.1067 29.8341 22.5514 30.2386 23.0141 30.0982L26.0031 29.1913C26.4664 29.0509 26.9117 29.4566 26.8137 29.9302L24.5289 40.9752C24.386 41.6661 25.3061 42.0428 25.6897 41.4505L25.9461 41.0549L40.1094 12.8247C40.3467 12.3521 39.9376 11.8131 39.418 11.9134L34.4366 12.8735C33.9686 12.9636 33.5704 12.5282 33.7024 12.071L36.9536 0.814624C37.0858 0.356215 36.686 -0.0793714 36.2174 0.0123104H36.2172Z" fill="url(#paint1_linear_29_1354)"/>
<defs>
<linearGradient id="paint0_linear_29_1354" x1="-0.414" y1="8.90244" x2="24.8758" y2="43.2914" gradientUnits="userSpaceOnUse">
<stop stop-color="#41D1FF"/>
<stop offset="1" stop-color="#BD34FE"/>
</linearGradient>
<linearGradient id="paint1_linear_29_1354" x1="27.1962" y1="0.93591" x2="32.3945" y2="36.6399" gradientUnits="userSpaceOnUse">
<stop stop-color="#FFEA83"/>
<stop offset="0.083" stop-color="#FFDD35"/>
<stop offset="1" stop-color="#FFA800"/>
</linearGradient>
</defs>
</svg>

<svg width="50" height="50" fill="none" xmlns="http://www.w3.org/2000/svg"><path d="M49.835 7.4 26.347 49.348a1.277 1.277 0 0 1-2.223.01L.171 7.404c-.536-.939.268-2.076 1.333-1.886l23.513 4.197c.15.027.304.027.454 0l23.02-4.191c1.063-.193 1.87.936 1.344 1.877z" fill="url(#a)"/><path d="M36.217.012 18.836 3.414a.639.639 0 0 0-.514.588l-1.07 18.035a.639.639 0 0 0 .781.659l4.84-1.115a.638.638 0 0 1 .768.748l-1.438 7.032a.638.638 0 0 0 .811.737l2.99-.907a.638.638 0 0 1 .81.74l-2.285 11.044c-.143.691.777 1.068 1.16.475l.257-.395 14.163-28.23a.637.637 0 0 0-.691-.912l-4.981.96a.638.638 0 0 1-.735-.802L36.954.815a.638.638 0 0 0-.737-.803z" fill="url(#b)"/><defs><linearGradient id="a" x1="-.414" y1="8.902" x2="24.876" y2="43.291" gradientUnits="userSpaceOnUse"><stop stop-color="#41D1FF"/><stop offset="1" stop-color="#BD34FE"/></linearGradient><linearGradient id="b" x1="27.196" y1=".936" x2="32.395" y2="36.64" gradientUnits="userSpaceOnUse"><stop stop-color="#FFEA83"/><stop offset=".083" stop-color="#FFDD35"/><stop offset="1" stop-color="#FFA800"/></linearGradient></defs></svg>
